X:1
T:Dermot Grogan's
M:6/8
L:1/8
R:Dbl Jig
K:Edor
|:ede dBA| gfg afd| (3efg e dBA| BAB GED|
EDE dBA| gfg afd| (3efg e dBA| Bed e2 B:|
|:ebb ebb| ebb baf| dfa dfa| dfa afd|
gfg aga| bag fga| bge dBA| Bed e2 B:|
